report_00007_2020-12-11T15:55:29.892Z/interactive/comparison/line/5_vs_6.svg

<svg width="640" height="500" xmlns="http://www.w3.org/2000/svg" xmlns:xlink="http://www.w3.org/1999/xlink"><path fill="#fff" d="M0 0h640v500H0z"/><defs><path id="d" stroke-width=".222" stroke="currentColor" d="M-1-1h2v2h-2z"/><path id="b" stroke-width=".222" stroke="currentColor" d="M0-1.33l-1.33 2h2.66z"/><path id="f" stroke-width=".222" stroke="currentColor" d="M0 1.33L1.265.411.782-1.067l-1.564-.009-.483 1.487z"/><use xlink:href="#b" id="c" stroke="currentColor" transform="rotate(180)"/><use xlink:href="#d" id="e" stroke="currentColor" transform="rotate(45)"/><circle id="a" stroke-width=".222" stroke="currentColor" cx="0" cy="0" r="1"/></defs><g fill="none" color="#000" stroke="currentColor"><path stroke="#000" d="M62.2 390.9h9m543.8 0h-9"/><text transform="translate(53.9 394.8)" stroke="none" fill="#000" font-family="Arial" font-size="12" text-anchor="end"><tspan>1500</tspan></text></g><g fill="none" color="#000" stroke="currentColor"><path stroke="#000" d="M62.2 332.7h9m543.8 0h-9"/><text transform="translate(53.9 336.6)" stroke="none" fill="#000" font-family="Arial" font-size="12" text-anchor="end"><tspan>1600</tspan></text></g><g fill="none" color="#000" stroke="currentColor"><path stroke="#000" d="M62.2 274.4h9m543.8 0h-9"/><text transform="translate(53.9 278.3)" stroke="none" fill="#000" font-family="Arial" font-size="12" text-anchor="end"><tspan>1700</tspan></text></g><g fill="none" color="#000" stroke="currentColor"><path stroke="#000" d="M62.2 216.2h9m543.8 0h-9"/><text transform="translate(53.9 220.1)" stroke="none" fill="#000" font-family="Arial" font-size="12" text-anchor="end"><tspan>1800</tspan></text></g><g fill="none" color="#000" stroke="currentColor"><path stroke="#000" d="M62.2 158h9m543.8 0h-9"/><text transform="translate(53.9 161.9)" stroke="none" fill="#000" font-family="Arial" font-size="12" text-anchor="end"><tspan>1900</tspan></text></g><g fill="none" color="#000" stroke="currentColor"><path stroke="#000" d="M62.2 99.7h9m543.8 0h-9"/><text transform="translate(53.9 103.6)" stroke="none" fill="#000" font-family="Arial" font-size="12" text-anchor="end"><tspan>2000</tspan></text></g><g fill="none" color="#000" stroke="currentColor"><path stroke="#000" d="M62.2 41.5h9m543.8 0h-9"/><text transform="translate(53.9 45.4)" stroke="none" fill="#000" font-family="Arial" font-size="12" text-anchor="end"><tspan>2100</tspan></text></g><g fill="none" color="#000" stroke="currentColor"><path stroke="#000" d="M62.2 392v-9m0-364.9v9"/><text transform="translate(62.2 413.9)" stroke="none" fill="#000" font-family="Arial" font-size="12" text-anchor="middle"><tspan>0</tspan></text></g><g fill="none" color="#000" stroke="currentColor"><path stroke="#000" d="M118 392v-9m0-364.9v9"/><text transform="translate(118 413.9)" stroke="none" fill="#000" font-family="Arial" font-size="12" text-anchor="middle"><tspan>10</tspan></text></g><g fill="none" color="#000" stroke="currentColor"><path stroke="#000" d="M173.9 392v-9m0-364.9v9"/><text transform="translate(173.9 413.9)" stroke="none" fill="#000" font-family="Arial" font-size="12" text-anchor="middle"><tspan>20</tspan></text></g><g fill="none" color="#000" stroke="currentColor"><path stroke="#000" d="M229.7 392v-9m0-364.9v9"/><text transform="translate(229.7 413.9)" stroke="none" fill="#000" font-family="Arial" font-size="12" text-anchor="middle"><tspan>30</tspan></text></g><g fill="none" color="#000" stroke="currentColor"><path stroke="#000" d="M285.6 392v-9m0-364.9v9"/><text transform="translate(285.6 413.9)" stroke="none" fill="#000" font-family="Arial" font-size="12" text-anchor="middle"><tspan>40</tspan></text></g><g fill="none" color="#000" stroke="currentColor"><path stroke="#000" d="M341.4 392v-9m0-364.9v9"/><text transform="translate(341.4 413.9)" stroke="none" fill="#000" font-family="Arial" font-size="12" text-anchor="middle"><tspan>50</tspan></text></g><g fill="none" color="#000" stroke="currentColor"><path stroke="#000" d="M397.2 392v-9m0-364.9v9"/><text transform="translate(397.2 413.9)" stroke="none" fill="#000" font-family="Arial" font-size="12" text-anchor="middle"><tspan>60</tspan></text></g><g fill="none" color="#000" stroke="currentColor"><path stroke="#000" d="M453.1 392v-9m0-364.9v9"/><text transform="translate(453.1 413.9)" stroke="none" fill="#000" font-family="Arial" font-size="12" text-anchor="middle"><tspan>70</tspan></text></g><g fill="none" color="#000" stroke="currentColor"><path stroke="#000" d="M508.9 392v-9m0-364.9v9"/><text transform="translate(508.9 413.9)" stroke="none" fill="#000" font-family="Arial" font-size="12" text-anchor="middle"><tspan>80</tspan></text></g><g fill="none" color="#000" stroke="currentColor"><path stroke="#000" d="M564.7 392v-9m0-364.9v9"/><text transform="translate(564.7 413.9)" stroke="none" fill="#000" font-family="Arial" font-size="12" text-anchor="middle"><tspan>90</tspan></text></g><path stroke="#000" d="M62.2 18.1V392H615V18.1H62.2z" fill="none" color="#000"/><text transform="translate(437.8 431.9)" stroke="none" fill="#000" font-family="Arial" font-size="12" text-anchor="end" color="#000"><tspan>pages+cached+noexternal</tspan></text><path stroke="#9400D3" d="M446.1 428h42.2M62.2 205.4l5.6-1.2 5.6.7L79 70.7l5.5 133.4 5.6-.3 5.6.5 5.6.4 5.6-133.5 5.6 1.2 5.5-2.3 5.6.4 5.6-.6 5.6 1.1 5.6 134.4L146 117l5.5-2.1 5.6-46.6 5.6 5.6 5.6-4.4 5.6 3.2 5.6 130.2 5.5 1.5 5.6 1 5.6-.6 5.6-1 5.6 1.1L213 71.5l5.5 41.3 5.6-39.3 5.6 130.8 5.6-134.6 5.6 134.5 5.6.4 5.6-134.4 5.5 134.2 5.6 1.5 5.6-2 5.6-133h5.6l5.6 1 5.5 133.9 5.6-135.3 5.6 134.2 5.6 1.7 5.6-1.5 5.6-91.8 5.5 92.7 5.6-132.9 5.6 132 5.6-134.1 5.6-.2 5.6-.8 5.5 2.5 5.6 131.2 5.6 2.5 5.6-2.1 5.6-90.4 5.6-42.7 5.5-.5 5.6 134.6 5.6-135.1 5.6-1.7 5.6.3 5.6 5 5.5 42 5.6 88.3 5.6-134 5.6 1.7 5.6 134.3 5.6.3 5.6.3 5.5-1.2 5.6-133.9 5.6 133.4L481 72.8l5.6 131.1 5.6-133.4 5.5 134.8 5.6-134.6 5.6 133.3 5.6-89 5.6-44.3 5.6 135.5 5.5-3 5.6-130.5 5.6 42.2 5.6.2 5.6-43.9 5.6 134.1 5.5-135.1 5.6 135.3L575.9 71l5.6.9 5.6 43.5 5.6-44.4 5.5 133.2 5.6-132.8 5.6-.6 5.6 133.5" fill="none" color="#000"/><text transform="translate(437.8 449.9)" stroke="none" fill="#000" font-family="Arial" font-size="12" text-anchor="end" color="#000"><tspan>pages+cached+noexternal+nofonts</tspan></text><path stroke="#009E73" d="M446.1 446h42.2M62.2 383.6l5.6-.2 5.6.1L79 206.9l5.5.3 5.6 176.5 5.6.8 5.6-220.7 5.6 220.2 5.6-358.5 5.5 182 5.6 176.4 5.6.3 5.6-.2 5.6-.1 5.6-.2 5.5-.4 5.6.4h5.6L168.3 31l5.6 352.7 5.6-1.2 5.5-.4 5.6-219.5 5.6 221.4 5.6.6 5.6-.2 5.6-.3 5.5-.4h5.6l5.6-357.6 5.6 2.8 5.6 355.8 5.6-177.8 5.6-178.7 5.5-1.5 5.6 357.4 5.6-.2 5.6-1 5.6.2 5.6-357 5.5 357.4 5.6-353.8 5.6 354.1 5.6-.3 5.6-175.7 5.6 176 5.5-224.7 5.6 224.8 5.6-354.6 5.6-1.1 5.6 356 5.6-.5 5.5.2 5.6-352.4 5.6 131.8 5.6 44.6 5.6-177.2 5.6 352.8 5.5.7 5.6.2 5.6-.5 5.6-.8L414 26.7l5.6 357.1 5.5-354.2 5.6-.2 5.6 353.8 5.6-357.9 5.6 358.7 5.6.2 5.6-.4 5.5-.1 5.6 1.1 5.6-354.2 5.6 352.6 5.6-352.9 5.6 354.1 5.5-177.2 5.6-.3 5.6 176.2 5.6 1.2 5.6.3 5.6-.7 5.5-.8 5.6.2 5.6-352.7L548 384l5.6.1 5.6-356.8 5.5 356.4 5.6-.4h5.6l5.6-.1 5.6-222.4 5.6 223.4 5.5-177.2 5.6 177.4 5.6-.9 5.6-.2" fill="none" color="#000"/><text transform="translate(437.8 467.9)" stroke="none" fill="#000" font-family="Arial" font-size="12" text-anchor="end" color="#000"><tspan>score p10=3785</tspan></text><path stroke="#56B4E9" d="M446.1 464h42.2" fill="none" color="#000"/><g><text transform="translate(437.8 485.9)" stroke="none" fill="#000" font-family="Arial" font-size="12" text-anchor="end" color="#000"><tspan>score median=7300</tspan></text><path stroke="#E69F00" d="M446.1 482h42.2" fill="none" color="#000"/></g><g fill="none" color="#000" stroke="currentColor"><path stroke="#000" d="M62.2 18.1V392H615V18.1H62.2z"/></g></svg>

<?xml version="1.0" encoding="utf-8"  standalone="no"?>
<svg 
 width="640" height="500"
 viewBox="0 0 640 500"
 xmlns="http://www.w3.org/2000/svg"
 xmlns:xlink="http://www.w3.org/1999/xlink"
>

<title>Gnuplot</title>
<desc>Produced by GNUPLOT 5.4 patchlevel 0 </desc>

<g id="gnuplot_canvas">

<rect x="0" y="0" width="640" height="500" fill="#ffffff"/>
<defs>

	<circle id='gpDot' r='0.5' stroke-width='0.5' stroke='currentColor'/>
	<path id='gpPt0' stroke-width='0.222' stroke='currentColor' d='M-1,0 h2 M0,-1 v2'/>
	<path id='gpPt1' stroke-width='0.222' stroke='currentColor' d='M-1,-1 L1,1 M1,-1 L-1,1'/>
	<path id='gpPt2' stroke-width='0.222' stroke='currentColor' d='M-1,0 L1,0 M0,-1 L0,1 M-1,-1 L1,1 M-1,1 L1,-1'/>
	<rect id='gpPt3' stroke-width='0.222' stroke='currentColor' x='-1' y='-1' width='2' height='2'/>
	<rect id='gpPt4' stroke-width='0.222' stroke='currentColor' fill='currentColor' x='-1' y='-1' width='2' height='2'/>
	<circle id='gpPt5' stroke-width='0.222' stroke='currentColor' cx='0' cy='0' r='1'/>
	<use xlink:href='#gpPt5' id='gpPt6' fill='currentColor' stroke='none'/>
	<path id='gpPt7' stroke-width='0.222' stroke='currentColor' d='M0,-1.33 L-1.33,0.67 L1.33,0.67 z'/>
	<use xlink:href='#gpPt7' id='gpPt8' fill='currentColor' stroke='none'/>
	<use xlink:href='#gpPt7' id='gpPt9' stroke='currentColor' transform='rotate(180)'/>
	<use xlink:href='#gpPt9' id='gpPt10' fill='currentColor' stroke='none'/>
	<use xlink:href='#gpPt3' id='gpPt11' stroke='currentColor' transform='rotate(45)'/>
	<use xlink:href='#gpPt11' id='gpPt12' fill='currentColor' stroke='none'/>
	<path id='gpPt13' stroke-width='0.222' stroke='currentColor' d='M0,1.330 L1.265,0.411 L0.782,-1.067 L-0.782,-1.076 L-1.265,0.411 z'/>
	<use xlink:href='#gpPt13' id='gpPt14' fill='currentColor' stroke='none'/>
	<filter id='textbox' filterUnits='objectBoundingBox' x='0' y='0' height='1' width='1'>
	  <feFlood flood-color='#FFFFFF' flood-opacity='1' result='bgnd'/>
	  <feComposite in='SourceGraphic' in2='bgnd' operator='atop'/>
	</filter>
	<filter id='greybox' filterUnits='objectBoundingBox' x='0' y='0' height='1' width='1'>
	  <feFlood flood-color='lightgrey' flood-opacity='1' result='grey'/>
	  <feComposite in='SourceGraphic' in2='grey' operator='atop'/>
	</filter>
</defs>
<g fill="none" color="#FFFFFF" stroke="black" stroke-width="1.00" stroke-linecap="butt" stroke-linejoin="miter">
</g>
<g fill="none" color="black" stroke="currentColor" stroke-width="1.00" stroke-linecap="butt" stroke-linejoin="miter">
	<path stroke='black'  d='M62.2,390.9 L71.2,390.9 M615.0,390.9 L606.0,390.9  '/>	<g transform="translate(53.9,394.8)" stroke="none" fill="black" font-family="Arial" font-size="12.00"  text-anchor="end">
		<text><tspan font-family="Arial" > 1500</tspan></text>
	</g>
</g>
<g fill="none" color="black" stroke="currentColor" stroke-width="1.00" stroke-linecap="butt" stroke-linejoin="miter">
	<path stroke='black'  d='M62.2,332.7 L71.2,332.7 M615.0,332.7 L606.0,332.7  '/>	<g transform="translate(53.9,336.6)" stroke="none" fill="black" font-family="Arial" font-size="12.00"  text-anchor="end">
		<text><tspan font-family="Arial" > 1600</tspan></text>
	</g>
</g>
<g fill="none" color="black" stroke="currentColor" stroke-width="1.00" stroke-linecap="butt" stroke-linejoin="miter">
	<path stroke='black'  d='M62.2,274.4 L71.2,274.4 M615.0,274.4 L606.0,274.4  '/>	<g transform="translate(53.9,278.3)" stroke="none" fill="black" font-family="Arial" font-size="12.00"  text-anchor="end">
		<text><tspan font-family="Arial" > 1700</tspan></text>
	</g>
</g>
<g fill="none" color="black" stroke="currentColor" stroke-width="1.00" stroke-linecap="butt" stroke-linejoin="miter">
	<path stroke='black'  d='M62.2,216.2 L71.2,216.2 M615.0,216.2 L606.0,216.2  '/>	<g transform="translate(53.9,220.1)" stroke="none" fill="black" font-family="Arial" font-size="12.00"  text-anchor="end">
		<text><tspan font-family="Arial" > 1800</tspan></text>
	</g>
</g>
<g fill="none" color="black" stroke="currentColor" stroke-width="1.00" stroke-linecap="butt" stroke-linejoin="miter">
	<path stroke='black'  d='M62.2,158.0 L71.2,158.0 M615.0,158.0 L606.0,158.0  '/>	<g transform="translate(53.9,161.9)" stroke="none" fill="black" font-family="Arial" font-size="12.00"  text-anchor="end">
		<text><tspan font-family="Arial" > 1900</tspan></text>
	</g>
</g>
<g fill="none" color="black" stroke="currentColor" stroke-width="1.00" stroke-linecap="butt" stroke-linejoin="miter">
	<path stroke='black'  d='M62.2,99.7 L71.2,99.7 M615.0,99.7 L606.0,99.7  '/>	<g transform="translate(53.9,103.6)" stroke="none" fill="black" font-family="Arial" font-size="12.00"  text-anchor="end">
		<text><tspan font-family="Arial" > 2000</tspan></text>
	</g>
</g>
<g fill="none" color="black" stroke="currentColor" stroke-width="1.00" stroke-linecap="butt" stroke-linejoin="miter">
	<path stroke='black'  d='M62.2,41.5 L71.2,41.5 M615.0,41.5 L606.0,41.5  '/>	<g transform="translate(53.9,45.4)" stroke="none" fill="black" font-family="Arial" font-size="12.00"  text-anchor="end">
		<text><tspan font-family="Arial" > 2100</tspan></text>
	</g>
</g>
<g fill="none" color="black" stroke="currentColor" stroke-width="1.00" stroke-linecap="butt" stroke-linejoin="miter">
	<path stroke='black'  d='M62.2,392.0 L62.2,383.0 M62.2,18.1 L62.2,27.1  '/>	<g transform="translate(62.2,413.9)" stroke="none" fill="black" font-family="Arial" font-size="12.00"  text-anchor="middle">
		<text><tspan font-family="Arial" > 0</tspan></text>
	</g>
</g>
<g fill="none" color="black" stroke="currentColor" stroke-width="1.00" stroke-linecap="butt" stroke-linejoin="miter">
	<path stroke='black'  d='M118.0,392.0 L118.0,383.0 M118.0,18.1 L118.0,27.1  '/>	<g transform="translate(118.0,413.9)" stroke="none" fill="black" font-family="Arial" font-size="12.00"  text-anchor="middle">
		<text><tspan font-family="Arial" > 10</tspan></text>
	</g>
</g>
<g fill="none" color="black" stroke="currentColor" stroke-width="1.00" stroke-linecap="butt" stroke-linejoin="miter">
	<path stroke='black'  d='M173.9,392.0 L173.9,383.0 M173.9,18.1 L173.9,27.1  '/>	<g transform="translate(173.9,413.9)" stroke="none" fill="black" font-family="Arial" font-size="12.00"  text-anchor="middle">
		<text><tspan font-family="Arial" > 20</tspan></text>
	</g>
</g>
<g fill="none" color="black" stroke="currentColor" stroke-width="1.00" stroke-linecap="butt" stroke-linejoin="miter">
	<path stroke='black'  d='M229.7,392.0 L229.7,383.0 M229.7,18.1 L229.7,27.1  '/>	<g transform="translate(229.7,413.9)" stroke="none" fill="black" font-family="Arial" font-size="12.00"  text-anchor="middle">
		<text><tspan font-family="Arial" > 30</tspan></text>
	</g>
</g>
<g fill="none" color="black" stroke="currentColor" stroke-width="1.00" stroke-linecap="butt" stroke-linejoin="miter">
	<path stroke='black'  d='M285.6,392.0 L285.6,383.0 M285.6,18.1 L285.6,27.1  '/>	<g transform="translate(285.6,413.9)" stroke="none" fill="black" font-family="Arial" font-size="12.00"  text-anchor="middle">
		<text><tspan font-family="Arial" > 40</tspan></text>
	</g>
</g>
<g fill="none" color="black" stroke="currentColor" stroke-width="1.00" stroke-linecap="butt" stroke-linejoin="miter">
	<path stroke='black'  d='M341.4,392.0 L341.4,383.0 M341.4,18.1 L341.4,27.1  '/>	<g transform="translate(341.4,413.9)" stroke="none" fill="black" font-family="Arial" font-size="12.00"  text-anchor="middle">
		<text><tspan font-family="Arial" > 50</tspan></text>
	</g>
</g>
<g fill="none" color="black" stroke="currentColor" stroke-width="1.00" stroke-linecap="butt" stroke-linejoin="miter">
	<path stroke='black'  d='M397.2,392.0 L397.2,383.0 M397.2,18.1 L397.2,27.1  '/>	<g transform="translate(397.2,413.9)" stroke="none" fill="black" font-family="Arial" font-size="12.00"  text-anchor="middle">
		<text><tspan font-family="Arial" > 60</tspan></text>
	</g>
</g>
<g fill="none" color="black" stroke="currentColor" stroke-width="1.00" stroke-linecap="butt" stroke-linejoin="miter">
	<path stroke='black'  d='M453.1,392.0 L453.1,383.0 M453.1,18.1 L453.1,27.1  '/>	<g transform="translate(453.1,413.9)" stroke="none" fill="black" font-family="Arial" font-size="12.00"  text-anchor="middle">
		<text><tspan font-family="Arial" > 70</tspan></text>
	</g>
</g>
<g fill="none" color="black" stroke="currentColor" stroke-width="1.00" stroke-linecap="butt" stroke-linejoin="miter">
	<path stroke='black'  d='M508.9,392.0 L508.9,383.0 M508.9,18.1 L508.9,27.1  '/>	<g transform="translate(508.9,413.9)" stroke="none" fill="black" font-family="Arial" font-size="12.00"  text-anchor="middle">
		<text><tspan font-family="Arial" > 80</tspan></text>
	</g>
</g>
<g fill="none" color="black" stroke="currentColor" stroke-width="1.00" stroke-linecap="butt" stroke-linejoin="miter">
	<path stroke='black'  d='M564.7,392.0 L564.7,383.0 M564.7,18.1 L564.7,27.1  '/>	<g transform="translate(564.7,413.9)" stroke="none" fill="black" font-family="Arial" font-size="12.00"  text-anchor="middle">
		<text><tspan font-family="Arial" > 90</tspan></text>
	</g>
</g>
<g fill="none" color="black" stroke="currentColor" stroke-width="1.00" stroke-linecap="butt" stroke-linejoin="miter">
</g>
<g fill="none" color="black" stroke="currentColor" stroke-width="1.00" stroke-linecap="butt" stroke-linejoin="miter">
	<path stroke='black'  d='M62.2,18.1 L62.2,392.0 L615.0,392.0 L615.0,18.1 L62.2,18.1 Z  '/></g>
<g fill="none" color="black" stroke="currentColor" stroke-width="1.00" stroke-linecap="butt" stroke-linejoin="miter">
</g>
	<g id="gnuplot_plot_1" ><title>pages+cached+noexternal</title>
<g fill="none" color="black" stroke="currentColor" stroke-width="1.00" stroke-linecap="butt" stroke-linejoin="miter">
	<g transform="translate(437.8,431.9)" stroke="none" fill="black" font-family="Arial" font-size="12.00"  text-anchor="end">
		<text><tspan font-family="Arial" >pages+cached+noexternal</tspan></text>
	</g>
</g>
<g fill="none" color="black" stroke="currentColor" stroke-width="1.00" stroke-linecap="butt" stroke-linejoin="miter">
	<path stroke='rgb(148,   0, 211)'  d='M446.1,428.0 L488.3,428.0 M62.2,205.4 L67.8,204.2 L73.4,204.9 L79.0,70.7 L84.5,204.1 L90.1,203.8
		L95.7,204.3 L101.3,204.7 L106.9,71.2 L112.5,72.4 L118.0,70.1 L123.6,70.5 L129.2,69.9 L134.8,71.0
		L140.4,205.4 L146.0,117.0 L151.5,114.9 L157.1,68.3 L162.7,73.9 L168.3,69.5 L173.9,72.7 L179.5,202.9
		L185.0,204.4 L190.6,205.4 L196.2,204.8 L201.8,203.8 L207.4,204.9 L213.0,71.5 L218.5,112.8 L224.1,73.5
		L229.7,204.3 L235.3,69.7 L240.9,204.2 L246.5,204.6 L252.1,70.2 L257.6,204.4 L263.2,205.9 L268.8,203.9
		L274.4,70.9 L280.0,70.9 L285.6,71.9 L291.1,205.8 L296.7,70.5 L302.3,204.7 L307.9,206.4 L313.5,204.9
		L319.1,113.1 L324.6,205.8 L330.2,72.9 L335.8,204.9 L341.4,70.8 L347.0,70.6 L352.6,69.8 L358.1,72.3
		L363.7,203.5 L369.3,206.0 L374.9,203.9 L380.5,113.5 L386.1,70.8 L391.6,70.3 L397.2,204.9 L402.8,69.8
		L408.4,68.1 L414.0,68.4 L419.6,73.4 L425.1,115.4 L430.7,203.7 L436.3,69.7 L441.9,71.4 L447.5,205.7
		L453.1,206.0 L458.7,206.3 L464.2,205.1 L469.8,71.2 L475.4,204.6 L481.0,72.8 L486.6,203.9 L492.2,70.5
		L497.7,205.3 L503.3,70.7 L508.9,204.0 L514.5,115.0 L520.1,70.7 L525.7,206.2 L531.2,203.2 L536.8,72.7
		L542.4,114.9 L548.0,115.1 L553.6,71.2 L559.2,205.3 L564.7,70.2 L570.3,205.5 L575.9,71.0 L581.5,71.9
		L587.1,115.4 L592.7,71.0 L598.2,204.2 L603.8,71.4 L609.4,70.8 L615.0,204.3  '/></g>
	</g>
	<g id="gnuplot_plot_2" ><title>pages+cached+noexternal+nofonts</title>
<g fill="none" color="black" stroke="currentColor" stroke-width="1.00" stroke-linecap="butt" stroke-linejoin="miter">
	<g transform="translate(437.8,449.9)" stroke="none" fill="black" font-family="Arial" font-size="12.00"  text-anchor="end">
		<text><tspan font-family="Arial" >pages+cached+noexternal+nofonts</tspan></text>
	</g>
</g>
<g fill="none" color="black" stroke="currentColor" stroke-width="1.00" stroke-linecap="butt" stroke-linejoin="miter">
	<path stroke='rgb(  0, 158, 115)'  d='M446.1,446.0 L488.3,446.0 M62.2,383.6 L67.8,383.4 L73.4,383.5 L79.0,206.9 L84.5,207.2 L90.1,383.7
		L95.7,384.5 L101.3,163.8 L106.9,384.0 L112.5,25.5 L118.0,207.5 L123.6,383.9 L129.2,384.2 L134.8,384.0
		L140.4,383.9 L146.0,383.7 L151.5,383.3 L157.1,383.7 L162.7,383.7 L168.3,31.0 L173.9,383.7 L179.5,382.5
		L185.0,382.1 L190.6,162.6 L196.2,384.0 L201.8,384.6 L207.4,384.4 L213.0,384.1 L218.5,383.7 L224.1,383.7
		L229.7,26.1 L235.3,28.9 L240.9,384.7 L246.5,206.9 L252.1,28.2 L257.6,26.7 L263.2,384.1 L268.8,383.9
		L274.4,382.9 L280.0,383.1 L285.6,26.1 L291.1,383.5 L296.7,29.7 L302.3,383.8 L307.9,383.5 L313.5,207.8
		L319.1,383.8 L324.6,159.1 L330.2,383.9 L335.8,29.3 L341.4,28.2 L347.0,384.2 L352.6,383.7 L358.1,383.9
		L363.7,31.5 L369.3,163.3 L374.9,207.9 L380.5,30.7 L386.1,383.5 L391.6,384.2 L397.2,384.4 L402.8,383.9
		L408.4,383.1 L414.0,26.7 L419.6,383.8 L425.1,29.6 L430.7,29.4 L436.3,383.2 L441.9,25.3 L447.5,384.0
		L453.1,384.2 L458.7,383.8 L464.2,383.7 L469.8,384.8 L475.4,30.6 L481.0,383.2 L486.6,30.3 L492.2,384.4
		L497.7,207.2 L503.3,206.9 L508.9,383.1 L514.5,384.3 L520.1,384.6 L525.7,383.9 L531.2,383.1 L536.8,383.3
		L542.4,30.6 L548.0,384.0 L553.6,384.1 L559.2,27.3 L564.7,383.7 L570.3,383.3 L575.9,383.3 L581.5,383.2
		L587.1,160.8 L592.7,384.2 L598.2,207.0 L603.8,384.4 L609.4,383.5 L615.0,383.3  '/></g>
	</g>
	<g id="gnuplot_plot_3" ><title>score p10=3785</title>
<g fill="none" color="black" stroke="currentColor" stroke-width="1.00" stroke-linecap="butt" stroke-linejoin="miter">
	<g transform="translate(437.8,467.9)" stroke="none" fill="black" font-family="Arial" font-size="12.00"  text-anchor="end">
		<text><tspan font-family="Arial" >score p10=3785</tspan></text>
	</g>
</g>
<g fill="none" color="black" stroke="currentColor" stroke-width="1.00" stroke-linecap="butt" stroke-linejoin="miter">
	<path stroke='rgb( 86, 180, 233)'  d='M446.1,464.0 L488.3,464.0  '/></g>
	</g>
	<g id="gnuplot_plot_4" ><title>score median=7300</title>
<g fill="none" color="black" stroke="currentColor" stroke-width="1.00" stroke-linecap="butt" stroke-linejoin="miter">
	<g transform="translate(437.8,485.9)" stroke="none" fill="black" font-family="Arial" font-size="12.00"  text-anchor="end">
		<text><tspan font-family="Arial" >score median=7300</tspan></text>
	</g>
</g>
<g fill="none" color="black" stroke="currentColor" stroke-width="1.00" stroke-linecap="butt" stroke-linejoin="miter">
	<path stroke='rgb(230, 159,   0)'  d='M446.1,482.0 L488.3,482.0  '/></g>
	</g>
<g fill="none" color="#FFFFFF" stroke="rgb(230, 159,   0)" stroke-width="2.00" stroke-linecap="butt" stroke-linejoin="miter">
</g>
<g fill="none" color="black" stroke="currentColor" stroke-width="2.00" stroke-linecap="butt" stroke-linejoin="miter">
</g>
<g fill="none" color="black" stroke="black" stroke-width="1.00" stroke-linecap="butt" stroke-linejoin="miter">
</g>
<g fill="none" color="black" stroke="currentColor" stroke-width="1.00" stroke-linecap="butt" stroke-linejoin="miter">
	<path stroke='black'  d='M62.2,18.1 L62.2,392.0 L615.0,392.0 L615.0,18.1 L62.2,18.1 Z  '/></g>
<g fill="none" color="black" stroke="currentColor" stroke-width="1.00" stroke-linecap="butt" stroke-linejoin="miter">
</g>
</g>
</svg>
